updated-assets/images/ecommerce (1).svg

<svg width="32" height="32" viewBox="0 0 32 32" fill="none" xmlns="http://www.w3.org/2000/svg">
<g clip-path="url(#clip0_1556_2360)">
<path d="M29.375 6.7099H7.69075C6.947 3.18915 4.88775 2.9624 4.71575 2.9434H3.147C2.9045 2.3394 2.31875 1.80615 1.6335 1.80615C0.731 1.80615 0 2.54415 0 3.4549C0 4.36515 0.73125 5.1029 1.6335 5.1029C2.324 5.1029 2.913 4.5544 3.15175 3.9434H4.61525C4.6735 3.9539 6.04 4.3689 6.55425 7.2534C7.23625 11.0759 8.9745 20.6814 8.98425 20.6804C8.98425 21.7429 9.622 23.6937 12.0332 23.6937H21.2943L20.9135 22.7097H12.0332C10.9995 22.7097 10.5505 21.9689 10.3525 21.4342C11.971 21.3272 16.4223 21.0319 20.3635 20.7507L20.3948 20.7429L18.535 14.7394C18.4471 14.4559 18.444 14.1529 18.526 13.8676C18.608 13.5824 18.7715 13.3273 18.9965 13.1337C19.453 12.7422 20.1343 12.6602 20.6685 12.9319L29.5215 17.4137C29.8341 17.5736 30.0819 17.8367 30.2227 18.1584L30.7857 18.0099C30.9942 17.5954 31.0378 17.2804 31.041 17.2447L31.977 9.6834C32.1807 8.04165 31.0152 6.7099 29.375 6.7099ZM15.743 12.2624C15.7546 12.2306 15.7724 12.2014 15.7953 12.1765C15.8183 12.1516 15.8459 12.1314 15.8766 12.1172C15.9073 12.1029 15.9405 12.0949 15.9744 12.0935C16.0082 12.0922 16.042 12.0975 16.0737 12.1092L17.7967 12.7412C17.931 12.7899 18 12.9384 17.9505 13.0722C17.9267 13.1363 17.8785 13.1883 17.8165 13.2171C17.7544 13.2458 17.6835 13.2489 17.6192 13.2257L15.8962 12.5937C15.8644 12.582 15.8352 12.5641 15.8103 12.5412C15.7854 12.5182 15.7652 12.4905 15.751 12.4598C15.7368 12.429 15.7287 12.3958 15.7274 12.3619C15.726 12.328 15.7313 12.2942 15.743 12.2624ZM17.585 15.1919L15.9233 15.9742C15.8613 16.0031 15.7904 16.0063 15.726 15.9832C15.6617 15.9601 15.6091 15.9124 15.5798 15.8507C15.5507 15.7887 15.5474 15.7178 15.5705 15.6535C15.5937 15.5891 15.6414 15.5366 15.7032 15.5074L17.365 14.7252C17.3956 14.7107 17.4288 14.7024 17.4627 14.7008C17.4965 14.6992 17.5304 14.7043 17.5622 14.7157C17.5941 14.7272 17.6234 14.7448 17.6485 14.7676C17.6736 14.7904 17.6939 14.8179 17.7084 14.8485C17.7228 14.8792 17.7311 14.9124 17.7327 14.9462C17.7343 14.9801 17.7293 15.0139 17.7178 15.0458C17.7063 15.0777 17.6887 15.107 17.6659 15.132C17.6431 15.1571 17.6156 15.1775 17.585 15.1919ZM18.7822 16.2782C18.916 16.3264 18.9858 16.4744 18.9375 16.6082L18.311 18.3474C18.2859 18.4094 18.2378 18.4592 18.1767 18.4865C18.1156 18.5138 18.0464 18.5163 17.9835 18.4937C17.9206 18.471 17.8689 18.4249 17.8392 18.3649C17.8096 18.305 17.8043 18.2359 17.8245 18.1722L18.452 16.4334C18.4754 16.3691 18.5232 16.3167 18.5851 16.2876C18.647 16.2586 18.7179 16.2551 18.7822 16.2782ZM19.3657 11.9872C19.3035 12.0157 19.2325 12.0185 19.1682 11.995C19.1039 11.9714 19.0515 11.9234 19.0225 11.8614L18.247 10.1854C18.2328 10.1547 18.2247 10.1215 18.2233 10.0877C18.2219 10.0538 18.2272 10.0201 18.2389 9.98829C18.2505 9.95651 18.2683 9.92733 18.2913 9.90243C18.3142 9.87753 18.3418 9.85739 18.3725 9.84315C18.4032 9.82892 18.4364 9.82088 18.4702 9.81948C18.5041 9.81809 18.5378 9.82337 18.5696 9.83502C18.6014 9.84667 18.6306 9.86448 18.6555 9.8874C18.6804 9.91033 18.7005 9.93794 18.7148 9.96865L19.4907 11.6449C19.5051 11.6756 19.5133 11.7088 19.5147 11.7426C19.5162 11.7764 19.511 11.8102 19.4994 11.842C19.4878 11.8738 19.47 11.903 19.4471 11.9279C19.4241 11.9528 19.3965 11.973 19.3657 11.9872ZM22.0835 10.3369L21.4575 12.0754C21.446 12.1074 21.4283 12.1368 21.4054 12.1619C21.3825 12.187 21.3549 12.2074 21.3241 12.2218C21.2933 12.2362 21.26 12.2444 21.2261 12.2459C21.1921 12.2475 21.1582 12.2423 21.1262 12.2307C21.062 12.2072 21.0097 12.1594 20.9806 12.0975C20.9515 12.0356 20.9481 11.9648 20.971 11.9004L21.598 10.1622C21.6094 10.1303 21.627 10.1011 21.6498 10.076C21.6725 10.051 21.7 10.0307 21.7306 10.0163C21.7612 10.0018 21.7943 9.9936 21.8281 9.99199C21.8619 9.99039 21.8957 9.99545 21.9275 10.0069C22.0625 10.0552 22.1318 10.2029 22.0835 10.3369ZM24.5287 12.8859L22.8685 13.6684C22.8379 13.6829 22.8047 13.6912 22.7708 13.6929C22.737 13.6946 22.7031 13.6895 22.6712 13.6781C22.6393 13.6667 22.61 13.6491 22.5849 13.6264C22.5598 13.6036 22.5394 13.5762 22.5249 13.5455C22.5104 13.5149 22.5021 13.4817 22.5004 13.4479C22.4987 13.414 22.5037 13.3802 22.5151 13.3483C22.5266 13.3164 22.5441 13.287 22.5669 13.2619C22.5896 13.2368 22.6171 13.2164 22.6478 13.2019L24.3092 12.4189C24.4377 12.3587 24.5915 12.4137 24.6525 12.5424C24.7135 12.6712 24.6582 12.8249 24.5287 12.8859Z" fill="#3B4652"/>
<path d="M26.9365 20.0777L29.025 19.257C29.1183 19.2199 29.1989 19.1567 29.2572 19.0749C29.3154 18.9931 29.3488 18.8963 29.3533 18.796C29.3582 18.6958 29.3341 18.5962 29.2837 18.5094C29.2334 18.4226 29.159 18.3522 29.0695 18.3067L20.2138 13.8237C20.1233 13.7777 20.0212 13.7596 19.9204 13.7717C19.8196 13.7839 19.7247 13.8258 19.6478 13.892C19.5706 13.9586 19.5145 14.0463 19.4863 14.1444C19.4582 14.2424 19.4593 14.3466 19.4895 14.444L22.491 24.1305C22.5209 24.2282 22.5791 24.3148 22.6583 24.3794C22.7375 24.444 22.834 24.4836 22.9358 24.4932C23.0374 24.5021 23.1394 24.4808 23.2289 24.4319C23.3185 24.3831 23.3917 24.3089 23.4393 24.2187L24.6488 21.9165L27.227 25.3345C27.2749 25.398 27.3368 25.4497 27.4079 25.4854C27.479 25.5211 27.5574 25.5398 27.637 25.5402C27.7488 25.5402 27.8593 25.5032 27.9495 25.4337L29.5285 24.2195C29.5832 24.1772 29.6289 24.1245 29.6631 24.0644C29.6973 24.0044 29.7192 23.9381 29.7277 23.8695C29.7361 23.8009 29.7309 23.7313 29.7123 23.6648C29.6937 23.5982 29.662 23.536 29.6193 23.4817L26.9365 20.0777ZM24.8018 25.8647C23.6163 25.8647 22.6518 26.836 22.6518 28.0292C22.6518 29.2225 23.6155 30.1937 24.8018 30.1937C25.9868 30.1937 26.9518 29.2225 26.9518 28.0292C26.9518 26.836 25.9868 25.8647 24.8018 25.8647ZM12.4253 25.8647C11.24 25.8647 10.2753 26.836 10.2753 28.0292C10.2753 29.2225 11.2398 30.1937 12.4253 30.1937C13.6108 30.1937 14.5753 29.2225 14.5753 28.0292C14.5753 26.836 13.6108 25.8647 12.4253 25.8647Z" fill="#2B79C2"/>
</g>
<defs>
<clipPath id="clip0_1556_2360">
<rect width="32" height="32" fill="white"/>
</clipPath>
</defs>
</svg>

<svg width="32" height="32" fill="none" xmlns="http://www.w3.org/2000/svg"><g clip-path="url(#a)"><path d="M29.375 6.71H7.691c-.744-3.52-2.803-3.748-2.975-3.767H3.147c-.242-.604-.828-1.137-1.513-1.137A1.64 1.64 0 0 0 0 3.455c0 .91.731 1.648 1.633 1.648.691 0 1.28-.549 1.519-1.16h1.463c.058.01 1.425.426 1.94 3.31a2858.16 2858.16 0 0 0 2.43 13.427c0 1.063.637 3.014 3.048 3.014h9.261l-.38-.984h-8.88c-1.035 0-1.484-.741-1.682-1.276 1.619-.107 6.07-.402 10.011-.683l.032-.008-1.86-6.004a1.523 1.523 0 0 1 .462-1.605 1.541 1.541 0 0 1 1.672-.202l8.852 4.482c.313.16.56.423.702.744l.563-.148a2.48 2.48 0 0 0 .255-.765l.936-7.562c.204-1.641-.962-2.973-2.602-2.973Zm-13.632 5.552a.257.257 0 0 1 .33-.153l1.724.632a.257.257 0 0 1 .02.476.26.26 0 0 1-.198.009l-1.723-.632a.26.26 0 0 1-.153-.332Zm1.842 2.93-1.662.782a.26.26 0 0 1-.343-.123.258.258 0 0 1 .123-.344l1.662-.782a.256.256 0 0 1 .343.123.259.259 0 0 1-.123.344Zm1.197 1.086a.258.258 0 0 1 .155.33l-.626 1.74a.259.259 0 0 1-.486-.176l.627-1.739a.259.259 0 0 1 .33-.155Zm.584-4.29a.26.26 0 0 1-.343-.127l-.776-1.676a.258.258 0 0 1 .468-.216l.776 1.676a.255.255 0 0 1-.044.283.258.258 0 0 1-.081.06Zm2.718-1.651-.627 1.738a.258.258 0 0 1-.476.023.26.26 0 0 1-.01-.198l.627-1.738a.256.256 0 0 1 .33-.155.257.257 0 0 1 .155.33Zm2.445 2.549-1.66.782a.258.258 0 1 1-.221-.466l1.661-.783a.258.258 0 1 1 .22.467Z" fill="#3B4652"/><path d="m26.936 20.078 2.089-.821a.522.522 0 0 0 .045-.95l-8.856-4.483a.513.513 0 0 0-.728.32.524.524 0 0 0 .003.3l3.002 9.687a.516.516 0 0 0 .948.088l1.21-2.303 2.578 3.418a.518.518 0 0 0 .41.206.513.513 0 0 0 .313-.106l1.579-1.215a.523.523 0 0 0 .09-.737l-2.683-3.404Zm-2.134 5.787a2.16 2.16 0 0 0-2.15 2.164 2.16 2.16 0 0 0 2.15 2.165 2.16 2.16 0 0 0 2.15-2.165 2.16 2.16 0 0 0-2.15-2.164Zm-12.377 0a2.16 2.16 0 0 0-2.15 2.164 2.16 2.16 0 0 0 2.15 2.165 2.16 2.16 0 0 0 2.15-2.165 2.16 2.16 0 0 0-2.15-2.164Z" fill="#2B79C2"/></g><defs><clipPath id="a"><path fill="#fff" d="M0 0h32v32H0z"/></clipPath></defs></svg>
